resources/assets/svg/javascript.svg

<?xml version="1.0" encoding="UTF-8"?>
<svg width="20px" height="20px" viewBox="0 0 20 20" version="1.1" xmlns="http://www.w3.org/2000/svg" xmlns:xlink="http://www.w3.org/1999/xlink" xmlns:sketch="http://www.bohemiancoding.com/sketch/ns">
    <!-- Generator: Sketch 3.4.2 (15855) - http://www.bohemiancoding.com/sketch -->
    <title>javascript</title>
    <desc>Created with Sketch.</desc>
    <defs></defs>
    <g id="Page-1" stroke="none" stroke-width="1" fill="none" fill-rule="evenodd" sketch:type="MSPage">
        <g id="javascript" sketch:type="MSArtboardGroup">
            <g sketch:type="MSLayerGroup">
                <rect id="Rectangle-path" fill="#F7DF1E" sketch:type="MSShapeGroup" x="0" y="0" width="20" height="20"></rect>
                <path d="M13.4349206,15.6250794 C13.8377778,16.2828571 14.3619048,16.7663492 15.2888889,16.7663492 C16.067619,16.7663492 16.5650794,16.3771429 16.5650794,15.8393651 C16.5650794,15.1949206 16.0539683,14.9666667 15.1968254,14.591746 L14.7269841,14.3901587 C13.3707937,13.812381 12.4698413,13.0885714 12.4698413,11.5584127 C12.4698413,10.1488889 13.5438095,9.07587302 15.2222222,9.07587302 C16.4171429,9.07587302 17.2761905,9.49174603 17.8952381,10.5806349 L16.431746,11.5203175 C16.1095238,10.9425397 15.7619048,10.7149206 15.2222222,10.7149206 C14.671746,10.7149206 14.3228571,11.064127 14.3228571,11.5203175 C14.3228571,12.084127 14.6720635,12.312381 15.4784127,12.6615873 L15.948254,12.8628571 C17.5450794,13.547619 18.4466667,14.2457143 18.4466667,15.8152381 C18.4466667,17.5073016 17.1174603,18.4342857 15.332381,18.4342857 C13.5869841,18.4342857 12.4593651,17.6025397 11.907619,16.512381 L13.4349206,15.6250794 Z M6.79587302,15.7879365 C7.09111111,16.311746 7.35968254,16.7546032 8.00539683,16.7546032 C8.62285714,16.7546032 9.01238095,16.5130159 9.01238095,15.5736508 L9.01238095,9.1831746 L10.891746,9.1831746 L10.891746,15.5990476 C10.891746,17.5450794 9.75079365,18.4307937 8.08539683,18.4307937 C6.58063492,18.4307937 5.70920635,17.6520635 5.26603175,16.714127 L6.79587302,15.7879365 Z" id="Shape" fill="#000000" sketch:type="MSShapeGroup"></path>
            </g>
        </g>
    </g>
</svg>

<svg width="20" height="20" viewBox="0 0 20 20" xmlns="http://www.w3.org/2000/svg"><title>javascript</title><g fill="none" fill-rule="evenodd"><path fill="#F7DF1E" d="M0 0h20v20H0z"/><path d="M13.435 15.625c.403.658.927 1.14 1.854 1.14.778 0 1.275-.388 1.275-.926 0-.645-.51-.873-1.368-1.248l-.47-.202c-1.356-.578-2.257-1.3-2.257-2.832 0-1.41 1.074-2.482 2.752-2.482 1.195 0 2.054.416 2.673 1.505l-1.463.94c-.322-.577-.67-.805-1.21-.805-.55 0-.9.35-.9.805 0 .564.35.792 1.156 1.142l.47.2c1.597.686 2.5 1.384 2.5 2.953 0 1.692-1.33 2.62-3.116 2.62-1.745 0-2.873-.832-3.424-1.923l1.527-.887zm-6.64.163c.296.524.565.967 1.21.967.618 0 1.007-.242 1.007-1.18V9.182h1.88V15.6c0 1.945-1.14 2.83-2.807 2.83-1.504 0-2.376-.778-2.82-1.716l1.53-.926z" fill="#000"/></g></svg>
